assets/images/icon-github.svg

<?xml version="1.0" encoding="utf-8"?>
<!-- Generator: Adobe Illustrator 16.0.4, SVG Export Plug-In . SVG Version: 6.00 Build 0)  -->
<!DOCTYPE svg PUBLIC "-//W3C//DTD SVG 1.1//EN" "http://www.w3.org/Graphics/SVG/1.1/DTD/svg11.dtd">
<svg version="1.1" id="Layer_1" xmlns="http://www.w3.org/2000/svg" xmlns:xlink="http://www.w3.org/1999/xlink" x="0px" y="0px"
	 width="30px" height="30px" viewBox="0 0 30 30" enable-background="new 0 0 30 30" xml:space="preserve">
<title>Icon-GitHub</title>
<desc>Created with Sketch.</desc>
<g id="Page-1">
	<g id="evil-Icons" transform="translate(-4.000000, -627.000000)">
		<g id="Icon-GitHub" transform="translate(4.000000, 627.000000)">
			<path id="Fill-123" fill="#2D2D2D" d="M14.999,0C6.716,0,0,6.716,0,15.001c0,6.627,4.298,12.249,10.259,14.231
				c0.75,0.139,1.023-0.324,1.023-0.723c0-0.355-0.012-1.299-0.02-2.551c-4.172,0.907-5.053-2.011-5.053-2.011
				c-0.682-1.732-1.665-2.194-1.665-2.194c-1.362-0.93,0.103-0.912,0.103-0.912c1.505,0.106,2.298,1.547,2.298,1.547
				c1.338,2.293,3.51,1.631,4.365,1.246c0.136-0.97,0.524-1.631,0.952-2.006c-3.331-0.378-6.832-1.665-6.832-7.413
				c0-1.638,0.584-2.977,1.544-4.025c-0.155-0.38-0.669-1.905,0.147-3.97c0,0,1.259-0.403,4.125,1.538
				c1.196-0.333,2.479-0.499,3.755-0.505c1.274,0.006,2.558,0.172,3.755,0.505c2.864-1.941,4.121-1.538,4.121-1.538
				c0.818,2.065,0.303,3.59,0.148,3.97c0.963,1.048,1.543,2.387,1.543,4.025c0,5.763-3.508,7.03-6.85,7.402
				c0.539,0.463,1.02,1.378,1.02,2.776c0,2.006-0.02,3.625-0.02,4.115c0,0.401,0.271,0.868,1.032,0.723
				C25.706,27.244,30,21.626,30,15.001C30,6.716,23.283,0,14.999,0"/>
		</g>
	</g>
</g>
</svg>

<?xml version="1.0" encoding="UTF-8" standalone="no"?>
<svg width="30px" height="30px" viewBox="0 0 30 30" version="1.1" xmlns="http://www.w3.org/2000/svg" xmlns:xlink="http://www.w3.org/1999/xlink">
    <!-- Generator: Sketch 45 (43475) - http://www.bohemiancoding.com/sketch -->
    <title>Icon-GitHub</title>
    <desc>Created with Sketch.</desc>
    <defs></defs>
    <g id="Page-1" stroke="none" stroke-width="1" fill="none" fill-rule="evenodd">
        <g id="evil-Icons" transform="translate(-4.000000, -627.000000)" fill-rule="nonzero" fill="#454D5D">
            <g id="Icon-GitHub" transform="translate(4.000000, 627.000000)">
                <path d="M14.999,0 C6.716,0 0,6.716 0,15.001 C0,21.628 4.298,27.25 10.259,29.233 C11.009,29.371 11.282,28.908 11.282,28.51 C11.282,28.154 11.27,27.211 11.262,25.959 C7.09,26.866 6.209,23.948 6.209,23.948 C5.527,22.216 4.544,21.754 4.544,21.754 C3.182,20.824 4.647,20.842 4.647,20.842 C6.152,20.948 6.945,22.388 6.945,22.388 C8.283,24.681 10.455,24.019 11.31,23.635 C11.446,22.665 11.834,22.004 12.262,21.629 C8.931,21.251 5.43,19.964 5.43,14.216 C5.43,12.578 6.014,11.239 6.974,10.191 C6.819,9.811 6.305,8.286 7.121,6.221 C7.121,6.221 8.38,5.818 11.246,7.759 C12.442,7.426 13.725,7.26 15.001,7.254 C16.275,7.26 17.558,7.426 18.756,7.759 C21.62,5.818 22.877,6.221 22.877,6.221 C23.695,8.286 23.18,9.811 23.026,10.191 C23.988,11.239 24.568,12.578 24.568,14.216 C24.568,19.978 21.061,21.246 17.719,21.618 C18.258,22.081 18.738,22.996 18.738,24.395 C18.738,26.401 18.719,28.019 18.719,28.51 C18.719,28.911 18.99,29.378 19.751,29.232 C25.706,27.244 30,21.626 30,15.001 C30,6.716 23.283,0 14.999,0" id="Fill-123"></path>
            </g>
        </g>
    </g>
</svg>
